components/Company/logos/logo-ciena.svg

<svg height="140" viewBox="0 0 400 140" width="400" xmlns="http://www.w3.org/2000/svg"><g fill="#c92027" transform="translate(60 26)"><path d="m49.5539568 30.4172662c-8.8633093-2.618705-18.5323741-3.6258993-27.3956834-.6043166-7.4532374 2.4172662-13.89928059 7.6546763-17.32374103 14.9064749-3.62589928 8.0575539-3.82733813 17.9280575-.60431654 26.1870503 2.82014388 7.4532374 8.86330937 12.8920864 16.31654677 15.5107914 4.2302158 1.6115108 8.6618705 2.2158273 13.294964 2.0143885 5.2374101-.2014389 11.0791367-.8057554 15.9136691-3.2230216v-15.3093525c-8.057554 3.0215827-20.1438849 3.6258993-25.5827338-4.4316547-2.6187051-3.8273381-2.6187051-9.0647482-.8057554-13.0935252 1.6115108-3.8273381 5.23741-6.2446043 9.0647482-7.2517985 5.8417266-1.6115108 11.6834532-.2014389 17.323741 1.4100719z"/><path d="m228.431655 88.2302158c7.654676 0 13.093525-2.8201439 17.122302-7.2517985v6.0431654h19.741007v-33.4388489c0-5.2374101-.402878-11.0791367-3.42446-15.7122302-2.417267-3.8273381-6.446044-6.4460432-10.676259-7.8561151-12.086331-4.2302158-25.784173-1.2086331-37.467626 2.618705v14.705036c6.848921-2.618705 14.906475-4.028777 22.359712-3.4244604 5.438849.4028777 9.669065 3.4244604 9.669065 9.266187v1.0071943c-13.697842-4.8345324-36.661871-2.8201439-36.661871 15.913669v.2014389c0 11.4820144 8.460432 17.9280575 19.33813 17.9280575zm7.453237-12.6906475c-4.230216 0-7.251798-2.4172661-7.251798-6.2446043v-.2014388c0-8.8633094 11.884892-7.6546763 17.323741-5.2374101 0 7.0503597-4.230216 11.6834532-10.071943 11.6834532z"/><path d="m147.856115 29.8129496h19.33813v8.6618705l.805755-1.0071942c5.640288-7.2517986 14.100719-11.0791367 23.366906-8.4604317 7.654677 2.2158274 11.884893 8.8633094 12.690648 16.7194245.402878 3.6258993.201439 7.4532374.201439 11.0791367v18.1294964 12.0863309h-19.539569c0-10.4748201.201439-20.9496403 0-31.2230215 0-4.6330936-2.014388-9.2661871-7.251798-10.0719425-4.834532-.8057554-8.863309 2.0143885-10.071943 6.647482-.201438 2.0143885-.201438 4.2302158-.201438 6.4460432v9.6690647 18.5323741h-19.539569z"/><g transform="translate(54.388489)"><path d="m87.4244604 79.7697842c-6.2446043 4.2302158-13.0935251 7.4532374-20.7482014 8.2589928-8.057554.8057554-16.3165468-1.0071943-22.7625899-5.6402878-8.8633094 4.028777-19.1366907 7.2517986-28.8057554 4.2302158-7.25179859-2.2158273-10.87769787-8.6618705-11.88489212-15.7122302-.4028777-3.4244604-.20143885-7.0503597-.20143885-10.676259 0-5.8417266 0-11.6834532 0-17.7266187 0-4.028777 0-8.2589928 0-12.2877698h18.12949637c0 9.0647482.2014389 18.3309353.4028777 27.3956835.2014389 4.2302158-.2014388 9.4676259 2.4172662 12.8920863 2.6187051 3.6258993 7.6546763 2.8201439 11.4820144 1.8129497-8.0575539-16.7194245.8057554-39.0791367 18.733813-44.7194245 7.4532374-2.4172662 17.323741-2.0143885 23.3669064 3.4244604 4.8345324 4.2302159 6.2446044 10.8776979 4.8345324 16.9208633-1.2086331 4.6330936-3.8273381 8.4604317-6.8489209 11.8848921-4.0287769 4.6330936-8.8633093 8.4604317-13.8992805 12.086331 6.8489208 5.0359712 18.1294964 1.4100719 25.7841726-3.4244605zm-20.7482014-24.9784173c2.2158273-2.8201439 4.8345324-7.8561151 1.4100719-10.8776978-2.2158273-2.0143885-5.8417266-1.6115108-8.2589928-.2014389-7.6546762 4.2302158-8.2589928 13.8992806-4.4316546 20.9496403 4.6330935-3.2230216 8.4604316-6.4460432 11.2805755-9.8705036 6.647482-8.4604316-2.8201439 3.4244604 0 0z"/><path d="m23.1654676 11.4820144c0 5.8417266-4.8345323 10.676259-10.676259 10.676259-5.84172659 0-10.67625896-4.8345324-10.67625896-10.676259 0-5.84172663 4.83453237-10.676259 10.67625896-10.676259 5.6402878 0 10.676259 4.83453237 10.676259 10.676259z"/></g><path d="m275.366906 79.7697842c4.633094 0 4.633094 7.0503597 0 7.0503597-4.633093 0-4.633093-7.0503597 0-7.0503597zm0 6.647482c4.028777 0 3.827339-6.4460432-.201438-6.0431655-3.827339.2014389-3.6259 6.0431655.201438 6.0431655zm-1.410071-5.0359712h1.410071c1.611511 0 2.014389 2.2158273.402878 2.2158273.402878.6043165.805756 1.2086331 1.208633 1.8129496h-.604316l-1.208633-1.8129496h-.805756v1.8129496h-.402877zm.604316 1.8129496h.604317c.805755 0 1.61151-.4028777.805755-1.2086331-.201439-.2014388-1.208633-.2014388-1.410072-.2014388z"/></g></svg>

<?xml version="1.0" encoding="UTF-8"?>
<svg width="400px" height="140px" viewBox="0 0 400 140" version="1.1" xmlns="http://www.w3.org/2000/svg" xmlns:xlink="http://www.w3.org/1999/xlink">
    <title>Artboard</title>
    <g id="Artboard" stroke="none" stroke-width="1" fill="none" fill-rule="evenodd">
        <g id="ciena" transform="translate(60.000000, 26.000000)" fill="#C92027" fill-rule="nonzero">
            <g id="Group">
                <path d="M49.5539568,30.4172662 C40.6906475,27.7985612 31.0215827,26.7913669 22.1582734,29.8129496 C14.705036,32.2302158 8.25899281,37.4676259 4.83453237,44.7194245 C1.20863309,52.7769784 1.00719424,62.647482 4.23021583,70.9064748 C7.05035971,78.3597122 13.0935252,83.7985612 20.5467626,86.4172662 C24.7769784,88.028777 29.2086331,88.6330935 33.8417266,88.4316547 C39.0791367,88.2302158 44.9208633,87.6258993 49.7553957,85.2086331 L49.7553957,69.8992806 C41.6978417,72.9208633 29.6115108,73.5251799 24.1726619,65.4676259 C21.5539568,61.6402878 21.5539568,56.4028777 23.3669065,52.3741007 C24.9784173,48.5467626 28.6043165,46.1294964 32.4316547,45.1223022 C38.2733813,43.5107914 44.1151079,44.9208633 49.7553957,46.5323741 L49.5539568,30.4172662 L49.5539568,30.4172662 Z" id="Path"></path>
                <path d="M228.431655,88.2302158 C236.086331,88.2302158 241.52518,85.4100719 245.553957,80.9784173 L245.553957,87.0215827 L265.294964,87.0215827 L265.294964,53.5827338 C265.294964,48.3453237 264.892086,42.5035971 261.870504,37.8705036 C259.453237,34.0431655 255.42446,31.4244604 251.194245,30.0143885 C239.107914,25.7841727 225.410072,28.8057554 213.726619,32.6330935 L213.726619,47.3381295 C220.57554,44.7194245 228.633094,43.3093525 236.086331,43.9136691 C241.52518,44.3165468 245.755396,47.3381295 245.755396,53.1798561 L245.755396,54.1870504 C232.057554,49.352518 209.093525,51.3669065 209.093525,70.1007194 L209.093525,70.3021583 C209.093525,81.7841727 217.553957,88.2302158 228.431655,88.2302158 Z M235.884892,75.5395683 C231.654676,75.5395683 228.633094,73.1223022 228.633094,69.294964 L228.633094,69.0935252 C228.633094,60.2302158 240.517986,61.4388489 245.956835,63.8561151 C245.956835,70.9064748 241.726619,75.5395683 235.884892,75.5395683 Z" id="Shape"></path>
                <path d="M147.856115,29.8129496 L167.194245,29.8129496 L167.194245,38.4748201 L168,37.4676259 C173.640288,30.2158273 182.100719,26.3884892 191.366906,29.0071942 C199.021583,31.2230216 203.251799,37.8705036 204.057554,45.7266187 C204.460432,49.352518 204.258993,53.1798561 204.258993,56.8057554 C204.258993,62.8489209 204.258993,68.8920863 204.258993,74.9352518 C204.258993,78.9640288 204.258993,82.9928058 204.258993,87.0215827 L184.719424,87.0215827 C184.719424,76.5467626 184.920863,66.0719424 184.719424,55.7985612 C184.719424,51.1654676 182.705036,46.5323741 177.467626,45.7266187 C172.633094,44.9208633 168.604317,47.7410072 167.395683,52.3741007 C167.194245,54.3884892 167.194245,56.6043165 167.194245,58.8201439 C167.194245,62.0431655 167.194245,65.2661871 167.194245,68.4892086 C167.194245,74.7338129 167.194245,80.7769784 167.194245,87.0215827 L147.654676,87.0215827 L147.856115,29.8129496 L147.856115,29.8129496 Z" id="Path"></path>
                <g transform="translate(54.388489, 0.000000)">
                    <path d="M87.4244604,79.7697842 C81.1798561,84 74.3309353,87.2230216 66.676259,88.028777 C58.618705,88.8345324 50.3597122,87.0215827 43.9136691,82.3884892 C35.0503597,86.4172662 24.7769784,89.6402878 15.1079137,86.618705 C7.85611511,84.4028777 4.23021583,77.9568345 3.22302158,70.9064748 C2.82014388,67.4820144 3.02158273,63.8561151 3.02158273,60.2302158 C3.02158273,54.3884892 3.02158273,48.5467626 3.02158273,42.5035971 C3.02158273,38.4748201 3.02158273,34.2446043 3.02158273,30.2158273 L21.1510791,30.2158273 C21.1510791,39.2805755 21.352518,48.5467626 21.5539568,57.6115108 C21.7553957,61.8417266 21.352518,67.0791367 23.971223,70.5035971 C26.5899281,74.1294964 31.6258993,73.323741 35.4532374,72.3165468 C27.3956835,55.5971223 36.2589928,33.2374101 54.1870504,27.5971223 C61.6402878,25.1798561 71.5107914,25.5827338 77.5539568,31.0215827 C82.3884892,35.2517986 83.7985612,41.8992806 82.3884892,47.942446 C81.1798561,52.5755396 78.5611511,56.4028777 75.5395683,59.8273381 C71.5107914,64.4604317 66.676259,68.2877698 61.6402878,71.9136691 C68.4892086,76.9496403 79.7697842,73.323741 87.4244604,68.4892086 C87.4244604,68.4892086 87.4244604,79.7697842 87.4244604,79.7697842 Z M66.676259,54.7913669 C68.8920863,51.971223 71.5107914,46.9352518 68.0863309,43.9136691 C65.8705036,41.8992806 62.2446043,42.3021583 59.8273381,43.7122302 C52.1726619,47.942446 51.5683453,57.6115108 55.3956835,64.6618705 C60.028777,61.4388489 63.8561151,58.2158273 66.676259,54.7913669 C73.323741,46.3309353 63.8561151,58.2158273 66.676259,54.7913669 Z" id="Shape"></path>
                    <path d="M23.1654676,11.4820144 C23.1654676,17.323741 18.3309353,22.1582734 12.4892086,22.1582734 C6.64748201,22.1582734 1.81294964,17.323741 1.81294964,11.4820144 C1.81294964,5.64028777 6.64748201,0.805755396 12.4892086,0.805755396 C18.1294964,0.805755396 23.1654676,5.64028777 23.1654676,11.4820144 Z" id="Path"></path>
                </g>
            </g>
            <path d="M275.366906,79.7697842 C280,79.7697842 280,86.8201439 275.366906,86.8201439 C270.733813,86.8201439 270.733813,79.7697842 275.366906,79.7697842 Z M275.366906,86.4172662 C279.395683,86.4172662 279.194245,79.971223 275.165468,80.3741007 C271.338129,80.5755396 271.539568,86.4172662 275.366906,86.4172662 Z M273.956835,81.381295 L275.366906,81.381295 C276.978417,81.381295 277.381295,83.5971223 275.769784,83.5971223 C276.172662,84.2014388 276.57554,84.8057554 276.978417,85.4100719 L276.374101,85.4100719 L275.165468,83.5971223 L274.359712,83.5971223 L274.359712,85.4100719 L273.956835,85.4100719 L273.956835,81.381295 Z M274.561151,83.1942446 L275.165468,83.1942446 C275.971223,83.1942446 276.776978,82.7913669 275.971223,81.9856115 C275.769784,81.7841727 274.76259,81.7841727 274.561151,81.7841727 L274.561151,83.1942446 L274.561151,83.1942446 Z" id="Shape"></path>
        </g>
    </g>
</svg>
